common/src/main/resources/icons/plugins/python/com.jetbrains.python.jupyter/toolWindowJupyter.svg

<!--
  - The MIT License (MIT)
  -
  - Copyright (c) 2015-2022 Elior "Mallowigi" Boukhobza
  -
  - Permission is hereby granted, free of charge, to any person obtaining a copy
  - of this software and associated documentation files (the "Software"), to deal
  - in the Software without restriction, including without limitation the rights
  - to use, copy, modify, merge, publish, distribute, sublicense, and/or sell
  - copies of the Software, and to permit persons to whom the Software is
  - furnished to do so, subject to the following conditions:
  -
  - The above copyright notice and this permission notice shall be included in all
  - copies or substantial portions of the Software.
  -
  - THE SOFTWARE IS PROVIDED "AS IS", WITHOUT WARRANTY OF ANY KIND, EXPRESS OR
  - IMPLIED, INCLUDING BUT NOT LIMITED TO THE WARRANTIES OF MERCHANTABILITY,
  - FITNESS FOR A PARTICULAR PURPOSE AND NONINFRINGEMENT. IN NO EVENT SHALL THE
  - AUTHORS OR COPYRIGHT HOLDERS BE LIABLE FOR ANY CLAIM, DAMAGES OR OTHER
  - LIABILITY, WHETHER IN AN ACTION OF CONTRACT, TORT OR OTHERWISE, ARISING FROM,
  - OUT OF OR IN CONNECTION WITH THE SOFTWARE OR THE USE OR OTHER DEALINGS IN THE
  - SOFTWARE.
  -
  -
  -->

<svg version="1.1" xmlns="http://www.w3.org/2000/svg" x="0px" y="0px" width="13px" height="13px"
     viewBox="-110 -48 608 608">
  <path fill="#F78C6C"
        d="M363.1749878,34.3386345c0.8400269,19.7925911-14.3702087,36.5211449-33.9805298,37.3691826c-19.6002808,0.8480377-36.1755371-14.5075035-37.015564-34.3000946S306.5491333,0.8815286,326.1544189,0.033491S362.3349609,14.5460396,363.1749878,34.3386345 M193.5356445,384.5007019c-78.2163391,0-146.3281555-28.4102173-181.7874756-70.3781433c26.833786,75.240448,98.0906677,129.0350952,181.7874756,129.0350952s154.9537048-53.7946472,181.7874756-129.0350952C339.8638,356.0904846,271.7519836,384.5007019,193.5356445,384.5007019 M193.5356445,111.3343964c78.2163391,0,146.3281555,28.4065704,181.7874756,70.3781586c-26.8337708-75.2404785-98.0906677-129.0387421-181.7874756-129.0387421S38.581955,106.4720764,11.7481689,181.7125549C47.2074814,139.7409668,115.3193054,111.3343964,193.5356445,111.3343964 M101.3917084,467.5608215c0.996994,23.5126343-17.0774078,43.38797-40.3688049,44.3994751c-23.2914047,1.0064392-42.9797745-17.239624-43.9767761-40.7522583c-1.0019455-23.5126343,17.072464-43.3930054,40.3638611-44.3994751C80.7013855,425.802124,100.3946991,444.0481873,101.3917084,467.5608215 M26.9179688,95.017662C12.6761246,95.6327286,0.6337129,84.4763947,0.0244142,70.0946655c-0.6142578-14.3767166,10.4374084-26.5331802,24.6842041-27.1482506c14.2418442-0.6150742,26.2842484,10.5412636,26.8935547,24.9179802C52.2164307,82.2461243,41.1598053,94.4025803,26.9179688,95.017662z" />
</svg>

<svg xmlns="http://www.w3.org/2000/svg" width="13" height="13" viewBox="-110 -48 608 608"><path fill="#F78C6C" d="M363.175 34.339c.84 19.792-14.37 36.52-33.98 37.369-19.6.848-36.176-14.508-37.016-34.3S306.549.882 326.154.033s36.181 14.513 37.021 34.306M193.535 384.5c-78.216 0-146.328-28.41-181.787-70.378 26.834 75.24 98.09 129.035 181.788 129.035s154.953-53.795 181.787-129.035C339.863 356.09 271.752 384.5 193.536 384.5m0-273.167c78.216 0 146.328 28.407 181.787 70.379-26.834-75.24-98.09-129.04-181.787-129.04s-154.954 53.8-181.788 129.04c35.46-41.972 103.571-70.379 181.788-70.379m-92.144 356.227c.997 23.512-17.078 43.388-40.37 44.4-23.29 1.006-42.979-17.24-43.976-40.753-1.002-23.513 17.073-43.393 40.364-44.4s42.985 17.24 43.982 40.753M26.918 95.018C12.676 95.633.634 84.476.024 70.095-.59 55.718 10.462 43.56 24.71 42.946c14.241-.615 26.284 10.542 26.893 24.918.614 14.382-10.442 26.539-24.684 27.154"/></svg>
